!!!SOCIAL_FUNCTION:	songs with treatment of the sick
!!!PDT:	1943
!!!OTL: No_22_Doctor's_Song_(c).krn
!!!REG: British Columbia
**kern
*staff1
=1-
*clefF4
*k[b-e-]
*M3/4
4G\
16G\LK
8.F\J
4F\
=2
16B-\LK
8.G\J
16G\LK
8.F\J
8F\
8r
=3!|:
16G\LK
8.F\J
16F\LK
8.D\J
4C/
=4||
*M2/4
16F\LK
8.D\J
16D/LK
8.C/J
=5
16C/LK
8.BB-/J
8BB-/
8r
=6||
*M3/4
16F/LK
8.C/J
16C/LK
8.BB-/J
4BB-/
=7||
*M2/4
16C/LK
8.BB-/J
4BB-/
=8
8GG/
8r
8GG/L
8GG/J
=9||
*M3/4
8BB-/L
8BB-/J
4BB-/
4BB-/
==
*-
